X:1
T:Mrs. C. H. Morris
T:Mrs. C. H. M.
T:Do your Best
%%score { ( 1 2 ) | ( 3 4 ) }
L:1/8
M:4/4
K:Ab
V:1 treble 
V:2 treble 
V:3 bass 
V:4 bass 
V:1
{/x} E2 F>G A2 BA | G2 d>d d4 | E2 G>A B2 cB | A2 e>e e4 | e2 =d>d _d2 cc | d2 A>B c4 | %6
w: Out in the con\- flict with|Sa\- tan to\- day|Mil\- lions as\- sem\- ble in|bat\- tle ar\- ray;|Fol\- low your Lead\- er and|haste to the fray;|
w: Fling wide the ban\- ner, a\-|far let it wave;|Stand like a he\- ro, cou\-|ra\- geous and brave;|Strong in the strength of the|"Might\- y to save,"|
w: Trust in the arm of Je\-|ho\- vah a\- lone,|His is the bat\- tle and|we are His own;|Hard\- ness en\- dure, nor the|ar\- mor lay down;|
w: Less than our best shall we|of\- fer our King?|Less than our best to His|feet shall we bring?|Till in the Home\- land the|vict\- 'ry we sing,|
 BFGA A2 G2 | A6 z2 |"^Chorus" c3 =B c3 E | E>FGA A2 G2 | d3 c d3 E | E>FGF F2 E2 | CD=DE FEAB | %13
w: Chris\- tian sol\- dier, do your|best.|Do your best and|fol\- low where He leads you;|Do your best if|at the front He needs you;|Till the war\- fare's o\- ver and in|
w: |||||||
w: |||||||
w: |||||||
 c2 e2 d4 | dddG c2 B2 | A6 z2 |] %16
w: Heav'n we rest,|Chris\- tian sol\- dier, do your|best.|
w: |||
w: |||
w: |||
V:2
 C2 C>C C2 CC | D2 G>G G4 | D2 D>D D2 EG | A2 c>c c4 | c2 =B>B _B2 AA | F2 F>F =E4 | =DDDD _D2 D2 | %7
 C6 z2 | E3 =D E3 C | C>CCC D2 D2 | G3 ^F G3 D | D>DDD C2 C2 | A,B,=B,C _B,CEE | E2 _G2 F4 | %14
 EEEE G2 G2 | E2 F2 E2 z2 |] %16
V:3
 A,2 E,2 A,2 E,2 | B,2 E2 B,E,F,^F, | G,2 E,2 G,2 E,2 | A,2 E,2 A,E,F,G, | A,2 F,2 G,2 A,2 | %5
w: |||||
 A,D,F,A, G,C,=E,G, | A,3 F, B,4 | A,A,E,C, A,,2 z2 | A,A,A,A, A,A,A,A, | A,2 A,2 E,E,B,B, | %10
w: |||Chris- tian, do your ver- y best and|foll- low where He leads you;|
 B,B,B,=A, B,B,B,G, | G,>A,B,G, A,A,A,A, | E,E,A,A, A,2 A,G, | A,A,A,A, A,A, A,2 | E,E,E,B, E2 D2 | %15
w: Chris- tian do your ver- y best if|at * the * front He needs you;|Till the war- fare's o- ver *|and in Heav'n we safe- ly rest,||
 C2 D2 C2 z2 |] %16
w: * your best.|
V:4
 A,,2 E,,2 A,,2 E,,2 | B,,2 E,,2 B,,E,,F,,^F,, | G,,2 E,,2 G,,2 E,,2 | A,,2 E,,2 A,,E,,F,,G,, | %4
 A,,2 F,,2 G,,2 A,,2 | A,D,F,A, G,C,=E,G, | B,,4 E,4 | A,A,E,C, A,,2 z2 | %8
 A,,A,,A,,A,, A,,A,,A,,A,, | A,,2 A,,2 B,,B,,E,E, | E,E,E,E, E,E,E,E, | E,2 E,2 A,,A,,A,,A,, | %12
 A,,A,,A,,A,, A,,2 C,E, | A,A,C,C, D,D, D,2 | E,E,E,E, E,2 E,2 | A,,6 z2 |] %16

